assets/Rainbow flag/Flat/rainbow_flag_flat.svg

<svg xmlns="http://www.w3.org/2000/svg" width="32" height="32" fill="none"><path fill="#F8312F" d="m2 9 2 1h24l2-1V7a1 1 0 0 0-1-1H3a1 1 0 0 0-1 1v2Z"/><path fill="#8D65C5" d="M2 25a1 1 0 0 0 1 1h26a1 1 0 0 0 1-1v-2l-2-1H4l-2 1v2Z"/><path fill="#FFB02E" d="m2 12 2 1h24l2-1V9H2v3Z"/><path fill="#3F5FFF" d="M2 23h28v-3l-2-1H4l-2 1v3Z"/><path fill="#00D26A" d="M2 20h28v-4l-2-1H4l-2 1v4Z"/><path fill="#FFF478" d="M30 16v-4H2v4h28Z"/></svg>

<svg width="32" height="32" viewBox="0 0 32 32" fill="none" xmlns="http://www.w3.org/2000/svg">
<path d="M2 9L4 10H28L30 9V7C30 6.44772 29.5523 6 29 6H3C2.44772 6 2 6.44772 2 7V9Z" fill="#F8312F"/>
<path d="M2 25C2 25.5523 2.44771 26 3 26H29C29.5523 26 30 25.5523 30 25V23L28 22H4L2 23V25Z" fill="#8D65C5"/>
<path d="M2 12L4 13H28L30 12V9H2V12Z" fill="#FFB02E"/>
<path d="M2 23H30V20L28 19H4L2 20V23Z" fill="#3F5FFF"/>
<path d="M2 20H30V16L28 15H4L2 16V20Z" fill="#00D26A"/>
<path d="M30 16V12H2V16H30Z" fill="#FFF478"/>
</svg>
